!!! OTL: Berkowitz329
!!! Chapter: 1
!!! Section: III
!!! Page: 80
!!! Mode: 
!!! Encoder: DJB
**kern
*staff1
*I"Piano
=1-
*clefG2
*k[b-]
*F:
*M2/4
8r
8c/
4f/
=2
8r
8c/
4a/
=3
8r
8g/
8f/L
8e/J
=4
8r
8f/
4b-\
=5
8r
8f/
4dd\
=6
8r
8cc\
8b-/L
8a/J
=7
8r
8g/
4b-\
=8
8r
8e/
4cc\
=9
8r
8f/
4a/
=10
8r
8d/
4b-\
=11
!!linebreak:original
8e/
4g/
8f/
=12
8e/L
8d/J
8c/L
8B-/J
=13
8A/L
8c/J
8r
8e/
=14
4f/
4r
==
*-
